!!!CDT:
!!!PTL: Musiche di Sigismondo d' India 
!!!PPP: Milan
!!!PPR: Simon Tini & Filippo Lomazzo
!!!PDT: 1609
!!!PUB-format:
!!!RISM: I 24
!!!AGN: Madrigal
!!!SCT: Tsg07019b
!!!SCA: Tsg07019b
!!!original-voices: 1+bc
!!!extant-voices: 1+bc
!!!complete: Y
!!!final: (G)G
!!!COM: D'India, Sigismondo
!!!OTL: Sovente, allor che su gli estivi ardori
**kern	**fb	**kern	**text
*part2	*part2	*part1	*part1
*staff2	*staff2	*staff1	*staff1
*I"[Basso continuo]	*	*I"[Canto]	*
*I'Bc	*	*I'C	*
*oclefF4	*	*oclefC1	*
*clefF4	*	*clefG2	*
*k[b-]	*	*k[b-]	*
*F:	*	*F:	*
*omet(C)	*	*omet(C)	*
*M4/4	*	*M4/4	*
=1	=1	=1	=1
!!LO:TX:a:t=Musica sopra il Basso dell'aria di Genova.
!!LO:TX:a:t=[Prima parte.]
1GG	.	2g	So-
.	.	4g	-ven-
.	.	4g	-te, al-
=2	=2	=2	=2
1GG	.	1g	-l'hor
=3	=3	=3	=3
1G	.	4r	.
.	.	4b-y	ch'in
.	.	4b-y	su
.	.	4b-y	gli e-
=4	=4	=4	=4
1F	4:3	2.cc	-sti-
.	.	4cc	-vi ar-
=5	=5	=5	=5
1BB-y	.	2dd	-do-
.	.	2dd	-ri
=6	=6	=6	=6
1BB-y	.	4r	.
.	.	4dd	Gia-
.	.	[2ff	-cean
=7	=7	=7	=7
2E-X	7:6	4ff]	.
.	.	4ee-X	le
2G	.	8ee-iL	pe-
.	.	8ddJ	.
.	.	8dd	.
.	.	8cc	-co-
=8	=8	=8	=8
2F	4:3	2.cc	-rel-
2D	6	.	.
.	.	16b-yL	-l'al-
.	.	16cc	.
.	.	16dd	.
.	.	16ccJ	.
=9	=9	=9	=9
2F	4:3	4.cc	-l'o-
.	.	8b-y	-br'as-
2BB-y	.	2b-y	-si-
=10	=10	=10	=10
1BB-y	.	1b-y	-se,
=11	=11	=11	=11
4BB-y	.	4dd	Nel-
4C	.	4cc	-la
4D	6	[2b-y	scor-
4E	.	.	.
=12	=12	=12	=12
2.F	4:3	4b-]	.
.	.	8a	-za
.	.	8g	de'
.	.	4a	Fag-
8EL	.	4cc	-gi e
8DJ	.	.	.
=13	=13	=13	=13
1C	.	2ee-X	de
.	.	8ee-i	de-
.	.	8dd	-gl'Al-
.	.	8ffL	.
.	.	8ee-iJ	.
=14	=14	=14	=14
2G	.	16ddL	.
.	.	16cc	.
.	.	16dd	.
.	.	16b-yJ	.
.	.	16ccL	.
.	.	16b-y	.
.	.	16dd	.
.	.	16ccJ	.
2G	4:3	2dd	-lo-
=15	=15	=15	=15
1G	4:3	2dd	-ri
.	.	4r	.
.	.	4b-y	Se-
=16	=16	=16	=16
1GG	.	2.b-y	-gnò
.	.	4b-y	l'a-
=17	=17	=17	=17
1G	.	4b-y	-ma-
.	.	4b-y	-to
.	.	[2b-y	no-
=18	=18	=18	=18
1E-X	7:6	4b-]	.
.	.	4g	-me in
.	.	[2cc	mil-
=19	=19	=19	=19
1D	#	4cc]	.
.	.	16b-yL	-le
.	.	16a	.
.	.	16b-y	.
.	.	16ccJ	.
.	.	16aL	.
.	.	16g	.
.	.	16f	.
.	.	16eJ	.
.	.	16dL	.
.	.	16e	.
.	.	16f	.
.	.	16gJ	.
=20	=20	=20	=20
1D	#	16aL	.
.	.	16b-y	.
.	.	16cc	.
.	.	(<16f#XJ	.
.	.	8.f#i)L	.
.	.	(<16gJ	.
.	.	4.g)	gui-
.	.	8f#X	.
=21	=21	=21	=21
1GG	.	1g	-se,
=22	=22	=22	=22
4BB-y	.	4dd	Nel-
4C	.	4cc	-la
4D	.	8ccL	scor-
.	.	8b-yJ	.
4E	.	8b-yL	.
.	.	16a	.
.	.	16gJ	.
=23	=23	=23	=23
4F	.	8ccL	.
.	.	8b-yJ	.
4G	.	8b-yL	.
.	.	16a	.
.	.	16gJ	.
2F	4:3	8ddL	.
.	.	8ccJ	.
.	.	8ccL	.
.	.	16b-y	.
.	.	16aJ	.
=24	=24	=24	=24
2G	.	4b-y	.
.	.	8a	-za
.	.	8g	de'
2F	.	4cc	Fag-
.	.	4dd	-gi e
=25	=25	=25	=25
1F	.	8ddL	de-
.	.	16ee	.
.	.	16ffJ	.
.	.	8aL	.
.	.	8gJ	.
.	.	4a	.
.	.	4dd	-gl'Al-
=26	=26	=26	=26
4C	.	4.dd	-lo-
8BB-yL	.	.	.
8AAJ	.	8cc	.
2GG	11:10	2dd	-ri
=27	=27	=27	=27
4.G	.	4r	.
.	.	4g	Se-
8F	.	.	.
8EL	.	4g	-gnò
8DJ	.	.	.
8CL	.	4g	l'a-
8BB-yJ	.	.	.
=28	=28	=28	=28
4C	.	4g	-ma-
8BB-yL	.	4g	-to
8AAJ	.	.	.
4GG	.	[2g	no-
8FFL	.	.	.
8EEJ	.	.	.
=29	=29	=29	=29
4DD	11	4g]	.
4.D	#	4a	-me in
.	.	4a	mil-
8E	.	.	.
8FL	.	4a	-le
8DJ	.	.	.
=30	=30	=30	=30
8AL	.	[1a	gui-
8B-yJ	.	.	.
8cL	.	.	.
8AJ	.	.	.
8dL	.	.	.
8AJ	.	.	.
8FL	.	.	.
8GJ	.	.	.
=31	=31	=31	=31
8AL	.	1a]	.
8DJ	.	.	.
8BB-yL	.	.	.
8CJ	.	.	.
2D	4:3	.	.
=32	=32	=32	=32
1GG	.	1g	-se,
=33	=33	=33	=33
2G	.	4r	.
.	.	4dd	in
2E-X	.	2g	mil-
=34	=34	=34	=34
1D	.	16aL	-le
.	.	16b-y	.
.	.	16cc	.
.	.	16aJ	.
.	.	16b-yL	.
.	.	16cc	.
.	.	16f	.
.	.	16gJ	.
.	.	16aL	.
.	.	16f	.
.	.	16g	.
.	.	16aJ	.
.	.	16dL	.
.	.	16e	.
.	.	16f	.
.	.	16dJ	.
=35	=35	=35	=35
1D	.	16eL	.
.	.	16f	.
.	.	16d	.
.	.	16eJ	.
.	.	16fL	.
.	.	16g	.
.	.	16a	.
.	.	16b-yJ	.
.	.	16ccL	.
.	.	(<16g	.
.	.	8g)J	.
.	.	(<16aL	gui-
.	.	8.a)J	.
=36	=36	=36	=36
1GGl	.	1gl	-se.
=37||	=37||	=37||	=37||
!!LO:TX:a:t=[Seconda parte.]
2G	.	8r	.
.	.	8g	E
.	.	8g	de'
.	.	8g	suoi
2G	4	(>2ee-X	stra-
=38	=38	=38	=38
1G	.	8ee-i)	.
.	.	8bnX	-ni ed
.	.	8bni	in-
.	.	8bni	-fe-
.	.	[2dd	-li-
=39	=39	=39	=39
1F	3:4	4dd]	.
.	.	16ddL	-ci a-
.	.	16eenXi	.
.	.	16ff	.
.	.	16aJ	.
.	.	[2b-i	-mo-
=40	=40	=40	=40
2F	4:3	4b-]	.
.	.	4a	.
2BB-y	.	2b-y	-ri
=41	=41	=41	=41
1BB-y	.	2r	.
.	.	[2dd	Gl'a-
=42	=42	=42	=42
1E-X	7:6	4dd]	.
.	.	8cc	-spir
.	.	8b-y	suc-
.	.	[2b-y	-ces-
=43	=43	=43	=43
1E-i	.	4b-]	.
.	.	4g	-si in
.	.	[2cc	du-
=44	=44	=44	=44
1G	.	4cc]	.
.	.	16b-yL	-re
.	.	16cc	.
.	.	16dd	.
.	.	16ccJ	.
.	.	8ccL	.
.	.	8b-yJ	.
.	.	4r	.
=45	=45	=45	=45
1G	.	16ddL	scor-
.	.	16ee	.
.	.	16ff	.
.	.	16eeJ	.
.	.	8eeL	.
.	.	8ddJ	.
.	.	16gL	.
.	.	16a	.
.	.	16b-y	.
.	.	16aJ	.
.	.	8aL	.
.	.	8gJ	.
=46	=46	=46	=46
2F	.	16ccL	-za in-
.	.	16dd	.
.	.	16ee	.
.	.	16ddJ	.
.	.	8ddL	.
.	.	8ccJ	.
2BB-y	4:3	2dd	-ci-
=47	=47	=47	=47
1BB-y	.	1dd	-se;
=48	=48	=48	=48
4BB-y	.	4r	.
4C	.	4f	E
4D	.	4f	ri-
4E	.	4g	-le-
=49	=49	=49	=49
2.F	.	4a	-gen-
.	.	4b-y	-do
.	.	[2cc	poi
8EL	.	.	.
8DJ	.	.	.
=50	=50	=50	=50
1C	.	4cc]	.
.	.	4dd	le
.	.	4.ee-X	pro-
.	.	8cc	-prie
=51	=51	=51	=51
1G	4:3	2dd	no-
.	.	2dd	-te
=52	=52	=52	=52
1BBnX	.	4r	.
.	.	4g	Ri-
.	.	2g	-gò
=53	=53	=53	=53
1C	.	4r	.
.	.	4e-X	di
.	.	4e-i	bel-
.	.	4e-i	-le
=54	=54	=54	=54
1C	.	4.e-i	la-
.	.	8c	-gri-
.	.	[2c	-me
=55	=55	=55	=55
2D	#11	4c]	.
.	.	4B-y	le
2DD	11:#	2d	go-
=56	=56	=56	=56
1GG	.	2d	-te,
.	.	4r	.
.	.	4dd	E
=57	=57	=57	=57
4BB-y	.	8dd	ri-
.	.	8cc	-le-
4C	.	4cc	-gen-
4D	.	4.cc	-do
4E	.	.	.
.	.	8cc	poi
=58	=58	=58	=58
2F	.	4cc	le
.	.	4dd	pro-
2G	.	16ddL	.
.	.	16cc	.
.	.	16b-y	.
.	.	16aJ	.
.	.	16gL	.
.	.	16a	.
.	.	16b-y	.
.	.	16gJ	.
=59	=59	=59	=59
2C	4:3	16ee-XL	.
.	.	16dd	.
.	.	16cc	.
.	.	16b-yJ	.
.	.	16aL	.
.	.	16b-y	.
.	.	16cc	.
.	.	16aJ	.
2D	11:#	16ffL	.
.	.	16eenXi	.
.	.	16dd	.
.	.	16ccJ	.
.	.	16b-yL	.
.	.	16cc	.
.	.	16dd	.
.	.	16b-yJ	.
=60	=60	=60	=60
4F	.	16ccL	.
.	.	16b-y	.
.	.	16a	.
.	.	16gJ	.
4D	.	16fL	.
.	.	16g	.
.	.	16a	.
.	.	16fJ	.
2C	.	4.g	.
.	.	8cc	-prie
=61	=61	=61	=61
1G	.	2dd	no-
.	.	2dd	-te
=62	=62	=62	=62
1BBnX	.	4r	.
.	.	4g	Ri-
.	.	2g	-gò
=63	=63	=63	=63
1C	.	4r	.
.	.	4e-X	di
.	.	4e-i	bel-
.	.	4e-i	-le
=64	=64	=64	=64
1C	.	4.e-i	la-
.	.	8c	-gri-
.	.	[2c	-me
=65	=65	=65	=65
2D	#11	4c]	.
.	.	4B-y	le
2DD	11:#	2d	go-
=66	=66	=66	=66
1GG	.	1d	-te,
=67	=67	=67	=67
1F#X	.	4r	.
.	.	4dd	Ri-
.	.	2dd	-gò
=68	=68	=68	=68
1G	.	4r	.
.	.	4b-y	di
.	.	4b-y	bel-
.	.	4b-y	-le
=69	=69	=69	=69
2G	.	4.b-y	la-
.	.	8g	-gri-
[2E-X	.	2g	-me
=70	=70	=70	=70
2E-]	.	4r	.
.	.	4cc	le
2D	.	16ddL	go-
.	.	16cc	.
.	.	16b-y	.
.	.	16aJ	.
.	.	16gL	.
.	.	16f	.
.	.	16e	.
.	.	16fJ	.
=71	=71	=71	=71
1D	11	16gL	.
.	.	16f	.
.	.	16g	.
.	.	16aJ	.
.	.	16gL	.
.	.	16a	.
.	.	16b-y	.
.	.	16aJ	.
.	.	16b-yL	.
.	.	16cc	.
.	.	16b-y	.
.	.	16ccJ	.
.	.	8ddL	.
.	.	8ccJ	.
=72	=72	=72	=72
1D	11	8.ddL	.
.	.	16dJ	.
.	.	16eL	.
.	.	(<8f	.
.	.	16f)J	.
.	.	[2g	.
=73	=73	=73	=73
1DD	11:#	2g]	.
.	.	2f#X	.
=74	=74	=74	=74
1GGl	.	1gl	-te.
==	==	==	==
*-	*-	*-	*-
!!!system-decoration: [*]
!!!RDF**kern: > = above
!!!RDF**kern: < = below
!!!RDF**kern: i = editorial accidental
!!!RDF**kern: l = terminal long
!!!ENC: Emiliano Ricciardi
!!!END: 2019/08/08
!!!EED: Ricciardi, Emiliano
!!!EEV: 2019/08/08
!!!YEC: Copyright 2018 Emiliano Ricciardi, All Rights Reserved
!!!ONB: Translated from MusicXML on 2019/08/08 and edited by Craig Stuart Sapp
!!@@BEGIN:	VERSEDATA
!!@CATALOGNUM:	Tsg07019
!!@LAST_MODIFIED: 2020/07/12
!!@TITLE:		Sovente, allor che su gli estivi ardori
!!@CANTO:		VII
!!@OTTAVA:	19
!!@MANUSRC:	G-Al, G-Au, G-Br<sub>1</sub>, G-Br<sub>2</sub>, G-Es<sub>1</sub>, G-Es<sub>2</sub>, G-Es<sub>3</sub>, G-F, G-Fr, G-Fr<sub>1</sub>, G-Fr<sub>2</sub>, G-Mc<sub>1</sub>, G-Mr, G-Mg, G-Mt, G-N
!!@PRINTSRC:	G-1580CM, G-1581B, G-1581CV, G-1581R, G-1581MR, G-1581P, G-1581V, G-1581V<sub>bis</sub>, G-1582C, G-1582M, G-1582MC, G-1582P, G-1582SC, G-1582SC<sub>bis</sub>, G-1583S, G-1584O, G-1584S, G-1585C, G-1585S, G-1588S, G-1589S, G-1590B, G-1590S, G-1592S, G-1593S, G-1594C, G-1595C, G-1597C, G-1598C, G-1599C, G-1600C, G-1600S, G-1601C, G-1601R, G-1602C, G-1604C, G-1604Cl, G-1604F, G-1604P, G-1606B, G-1606B<sub>bis</sub>, G-1606L, G-1607ZR, G-1608DP, G-1609GC, G-1610M, G-1611S, G-1611V, G-1612P, G-1613M, G-1613P, G-1613V, G-1615P, G-1616M, G-1617P, G-1619B, G-1619V, G-1620M, G-1620S, G-1621R, G-1624I, G-1624MT, G-1625C, G-1625S, G-1625SS, G-1626C, G-1626Co, G-1627M, G-1628T, G-1628Tu, G-1630L, G-1630T, G-1632FT, G-1639CF, G-1642M, G-1643I, G-1644P, G-1644S
!!@@BEGIN:	VERSES
!!@ABOUTIT:
!!@ABOUTEN:
!!@EDITOR:	Angelo Solerti
!!@EDITION_TITLE: Gerusalemme liberata. Poema eroico di Torquato Tasso. Edizione critica sui manoscritti e le prime stampe.
!!@EDITION_LOC:	Florence
!!@EDITION_PUB:	G. Barbera
!!@EDITION_DATE:  1895
!!@EDITION_VOL:	2
!!@EDITION_PAGE:  260
!!@TRANSLATOR:	Emiliano Ricciardi and Amyrose McCue Gill
!!@VERSE:
!!	Sovente, allor che su gli estivi ardori
!!	Giacean le pecorelle a l’ombra assise,
!!	Nella scorza de’ faggi e de gli allori
!!	Segnò l’amato nome in mille guise:
!!	E de’ suoi strani ed infelici amori
!!	Gli aspri successi in mille piante incise;
!!	E in rileggendo poi le proprie note
!!	Rigò di belle lagrime le gote.
!!@MVERSE_DATE: 20230824
!!@MVERSE:
!!	So|ven||te,_al|lor|| che su||gli_e|sti||vi_ar|do||ri	=a
!!	Gia||cean le pe|co|rel||le_a l’om||bra_as|si||se,	=b
!!	Nel||la scor||za de’ fag||gi_e de gli_al|lo||ri		=a++
!!	Se|gnò|| l’a|ma||to no||me_in mil||le gui||se:		=b
!!	E de’ suoi stra||ni_ed in|fe|li||ci_a|mo||ri		=a++
!!	Gli_a||spri suc|ces||si_in mil||le pian||te_in|ci||se;	=b
!!	E_in ri|leg|gen||do poi le pro||prie no||te		=c
!!	Ri|gò|| di bel||le la|gri||me le go||te.		=c
!!@TVERSE:
!!	Often, when during the summer heatwaves
!!	Rest the lambs in the shade assembled,
!!	In the bark of beeches and of laurels
!!	She marked the beloved name in a thousand ways:
!!	And of its strange and unhappy loves
!!	Harsh events on a thousand trees carved;
!!	And while re-reading, then, her own accounts,
!!	Were streaked with beautiful tears her cheeks.
!!@@END:		VERSES
!!@OTHER_CRIT_ED:  Torquato Tasso, <i>Gerusalemme liberata</i>, ed. Lanfranco Caretti, 2 vols. (Bari: Laterza, 1967).
!!@ATTRIBUTION_ABOUT:
!!@DATING:	mid-1560s through 1570s
!!@DEDICATEE:	Duke Alfonso II d'Este
!!@COMMENTARY:
!!@@END:		VERSEDATA
!!@@BEGIN: SETTING
!!@CATALOGNUM:	Tsg07019b
!!@CANTO:		VII
!!@OTTAVA:	19
!!@TITLE:	Sovente, allor che su gli estivi ardori
!!@SETTINGTITLE: Sovente, all'hor ch'in su gli estivi ardori
!!@COMPOSER:	D'India, Sigismondo
!!@PARTS:		1-2 (verses 1-4; 5-8) of 4
!!@PRINCEPSTITLE:	Musiche di Sigismondo d' India 
!!@PRINCEPSLOC:	Milan
!!@NORMLOC:	Milan
!!@NORMPUB:	Simon Tini & Filippo Lomazzo
!!@NORMPUBSHORT:	Tini & Lomazzo
!!@PRINCEPSPUB:	Tini & Lomazzo
!!@PRINCEPSYEAR:	1609
!!@PRINCEPSRISM:	I 24
!!@OVOICES:	1+bc
!!@EXTANTVOICES:	1+bc
!!@OMENSURATION:	C
!!@OCLEFS:	C1,F4
!!@OTIME:		
!!@OKEYSIG:	b-
!!@FINAL:		(G)G
!!@TIMPEDITOR:	Ricciardi, Emiliano
!!@REPRINTS:	
!!@@END: SETTING
